X:21107 
T:LADS OF DUNSE, The 
B:DMI.0354
Z:Nordberg/Black
R:jig
%Q:1/4=160
M:6/8
L:1/8
K:D
B|AFD DFD|DFD B2A|Bcd AFA|BEE E2B|
AFD DFD|DFD B2A|Bcd AFA|FDD D2:|
g|fef d2e|fga B2A|Bcd AFA|BEE E2g|
[1 fef d2e|fga B2A|Bcd AFA|FDD D2:|
[2 fga efg|fea B2A|Bcd F2E|FDD D3||

%%%

